icon-themes/breeze_svg/cmd/lc_arrowshapes.left-right-arrow-callout.svg

<svg viewBox="0 0 24 24" xmlns="http://www.w3.org/2000/svg"><path d="m10 4v6h-2v-2l-4 4 4 4v-2h2v6h4v-6h2v2l4-4-4-4v2h-2v-6z" fill="#4d4d4d"/></svg>

<svg xmlns="http://www.w3.org/2000/svg" viewBox="0 0 24 24">
 <path 
     style="fill:#4d4d4d" 
     d="M 10 4 L 10 10 L 8 10 L 8 8 L 4 12 L 8 16 L 8 14 L 10 14 L 10 20 L 14 20 L 14 14 L 16 14 L 16 16 L 20 12 L 16 8 L 16 10 L 14 10 L 14 4 L 10 4 z "
     />
 </svg>
